assets/icons/action/google_news.svg

<?xml version="1.0"?><svg xmlns="http://www.w3.org/2000/svg" width="52" height="52" viewBox="0 0 52 52"><path fill="#fff" d="m50.3 5.3l-3.6 3.6c-0.4 0.4-1 0.4-1.4 0l-4.6-4.6c-0.4-0.4-1-0.4-1.4 0l-3.6 3.6c-0.4 0.4-1 0.4-1.4 0l-3.6-3.6c-0.4-0.4-1-0.4-1.4 0l-3.6 3.6c-0.4 0.4-1 0.4-1.4 0l-3.6-3.6c-0.4-0.4-1-0.4-1.4 0l-3.6 3.6c-0.4 0.4-1 0.4-1.4 0l-3.6-3.6c-0.4-0.4-1-0.4-1.4 0l-3.6 3.6c-0.4 0.4-1 0.4-1.4 0l-2.6-2.6c-0.6-0.6-1.7-0.2-1.7 0.7v38c0 2.2 1.8 4 4 4h44c2.2 0 4-1.8 4-4v-38c0-0.9-1.1-1.3-1.7-0.7z m-29.3 35.7c0 0.6-0.4 1-1 1h-12c-0.6 0-1-0.4-1-1v-18c0-0.6 0.4-1 1-1h12c0.6 0 1 0.4 1 1v18z m24 0c0 0.6-0.4 1-1 1h-18c-0.6 0-1-0.4-1-1v-2c0-0.6 0.4-1 1-1h18c0.6 0 1 0.4 1 1v2z m0-7h-20v-4h20v4z m0-9c0 0.6-0.4 1-1 1h-18c-0.6 0-1-0.4-1-1v-2c0-0.6 0.4-1 1-1h18c0.6 0 1 0.4 1 1v2z m0-8c0 0.6-0.4 1-1 1h-36c-0.6 0-1-0.4-1-1v-2c0-0.6 0.4-1 1-1h36c0.6 0 1 0.4 1 1v2z"></path></svg>

<svg xmlns="http://www.w3.org/2000/svg" x="0px" y="0px"
	 width="52px" height="52px" viewBox="0 0 52 52" enable-background="new 0 0 52 52" xml:space="preserve">
<path fill="#FFFFFF" d="M50.3,5.3l-3.6,3.6c-0.4,0.4-1,0.4-1.4,0l-4.6-4.6c-0.4-0.4-1-0.4-1.4,0l-3.6,3.6c-0.4,0.4-1,0.4-1.4,0
	l-3.6-3.6c-0.4-0.4-1-0.4-1.4,0l-3.6,3.6c-0.4,0.4-1,0.4-1.4,0l-3.6-3.6c-0.4-0.4-1-0.4-1.4,0l-3.6,3.6c-0.4,0.4-1,0.4-1.4,0
	l-3.6-3.6c-0.4-0.4-1-0.4-1.4,0L5.7,7.9c-0.4,0.4-1,0.4-1.4,0L1.7,5.3C1.1,4.7,0,5.1,0,6v38c0,2.2,1.8,4,4,4h39h5c2.2,0,4-1.8,4-4
	v-4V6C52,5.1,50.9,4.7,50.3,5.3z M21,41c0,0.6-0.4,1-1,1H8c-0.6,0-1-0.4-1-1V23c0-0.6,0.4-1,1-1h12c0.6,0,1,0.4,1,1V41z M45,41
	c0,0.6-0.4,1-1,1H26c-0.6,0-1-0.4-1-1v-2c0-0.6,0.4-1,1-1h18c0.6,0,1,0.4,1,1V41z M45,34H25v-4h20V34z M45,25c0,0.6-0.4,1-1,1H26
	c-0.6,0-1-0.4-1-1v-2c0-0.6,0.4-1,1-1h18c0.6,0,1,0.4,1,1V25z M45,17c0,0.6-0.4,1-1,1H8c-0.6,0-1-0.4-1-1v-2c0-0.6,0.4-1,1-1h36
	c0.6,0,1,0.4,1,1V17z"/>
</svg>
